src/food-drink/dishware/1F962.svg

<svg id="emoji" viewBox="0 0 72 72" xmlns="http://www.w3.org/2000/svg">
  <g id="grid">
    <path fill="#b3b3b3" d="M68,4V68H4V4H68m4-4H0V72H72V0Z"/>
    <path fill="none" stroke="#00a5ff" stroke-miterlimit="10" stroke-width="0.1" d="M12.923,10.9583H59.0769A1.9231,1.9231,0,0,1,61,12.8814V59.0352a1.9231,1.9231,0,0,1-1.9231,1.9231H12.9231A1.9231,1.9231,0,0,1,11,59.0352V12.8813A1.923,1.923,0,0,1,12.923,10.9583Z"/>
    <rect x="16" y="4" rx="2.2537" width="40" height="64" fill="none" stroke="#00a5ff" stroke-miterlimit="10" stroke-width="0.1"/>
    <rect x="16" y="4" rx="2.2537" width="40" height="64" transform="translate(72) rotate(90)" fill="none" stroke="#00a5ff" stroke-miterlimit="10" stroke-width="0.1"/>
    <circle cx="36" cy="36" r="29" fill="none" stroke="#00a5ff" stroke-miterlimit="10" stroke-width="0.1"/>
  </g>
  <g id="color">
    <path fill="#D22F27" stroke="none" stroke-linecap="round" stroke-linejoin="round" stroke-miterlimit="10" stroke-width="2" d="M53.7603,58.9583L18.829,20.2998c-0.781-0.781-2.0474-0.781-2.8284,0c-0.781,0.781-0.781,2.0474,0,2.8284L53.7603,58.9583"/>
    <path fill="#D22F27" stroke="none" stroke-linecap="round" stroke-linejoin="round" stroke-miterlimit="10" stroke-width="2" d="M56.5852,57.4276L30.512,12.3181c-0.6004-0.9271-1.8388-1.192-2.7659-0.5916s-1.192,1.8388-0.5916,2.7659L56.5852,57.4276"/>
  </g>
  <g id="hair"/>
  <g id="skin"/>
  <g id="skin-shadow"/>
  <g id="line">
    <path fill="none" stroke="#000000" stroke-linecap="round" stroke-linejoin="round" stroke-miterlimit="10" stroke-width="2" d="M53.7603,58.9583L18.829,20.2998c-0.781-0.781-2.0474-0.781-2.8284,0c-0.781,0.781-0.781,2.0474,0,2.8284L53.7603,58.9583"/>
    <path fill="none" stroke="#000000" stroke-linecap="round" stroke-linejoin="round" stroke-miterlimit="10" stroke-width="2" d="M56.5852,57.4276L30.512,12.3181c-0.6004-0.9271-1.8388-1.192-2.7659-0.5916s-1.192,1.8388-0.5916,2.7659L56.5852,57.4276"/>
  </g>
</svg>

<svg viewBox="0 0 72 72" xmlns="http://www.w3.org/2000/svg"><path fill="#b3b3b3" d="M68 4v64H4V4h64m4-4H0v72h72V0z"/><path fill="none" stroke="#00a5ff" stroke-miterlimit="10" stroke-width=".1" d="M12.923 10.958h46.154A1.923 1.923 0 0161 12.881v46.154a1.923 1.923 0 01-1.923 1.923H12.923A1.923 1.923 0 0111 59.035V12.881a1.923 1.923 0 011.923-1.923z"/><rect x="16" y="4" rx="2.254" width="40" height="64" fill="none" stroke="#00a5ff" stroke-miterlimit="10" stroke-width=".1"/><rect x="16" y="4" rx="2.254" width="40" height="64" transform="rotate(90 36 36)" fill="none" stroke="#00a5ff" stroke-miterlimit="10" stroke-width=".1"/><circle cx="36" cy="36" r="29" fill="none" stroke="#00a5ff" stroke-miterlimit="10" stroke-width=".1"/><path d="M53.76 58.958L18.83 20.3a2 2 0 00-2.828 2.828l37.76 35.83m2.823-1.53l-26.073-45.11a2 2 0 00-3.357 2.174l29.43 42.936" stroke-linecap="round" stroke-miterlimit="10" stroke-width="6" stroke="#fff" fill="none" stroke-linejoin="round"/><path d="M53.76 58.958L18.83 20.3a2 2 0 00-2.828 2.828l37.76 35.83m2.823-1.53l-26.073-45.11a2 2 0 00-3.357 2.174l29.43 42.936" fill="#D22F27"/><path d="M53.76 58.958L18.83 20.3a2 2 0 00-2.828 2.828l37.76 35.83m2.823-1.53l-26.073-45.11a2 2 0 00-3.357 2.174l29.43 42.936" fill="none" stroke="#000" stroke-linecap="round" stroke-linejoin="round" stroke-miterlimit="10" stroke-width="2"/></svg>
